!!!!SEGMENT: pl-wnifc--13846--074_anonim--piesni-polskie-i-ruskie-ludu-galicyjskiego-74-nad-strumykiem-przy-dolinie.krn
!!!kernsource:
!!!cenid: 18xx:3296
!!!COM: Anonim
!!!COM-rismID: pe30004985
!!!CDT:
!!!CNT:
!!!GTL: Pieśni polskie i ruskie ludu galicyjskiego
!!!OTL: 74. Nad strumykiem, przy dolinie
!!!OMV: 074
!!!PDT: 1833
!!!AGN:
!!!SMS-siglum: PL-Wnifc
!!!SMS-shelfmark: 13846
!!!SMS-shelfwork: 001-074 G
!!!NIFC-rismSourceID: 1001036701
!!!NIFC-rismChildID: 1001037246
!!!NIFC-islandoraID: nifc:210326
!!!URL-pdf-islandora: https://repozytorium.nifc.pl/islandora/object/nifc%3A210326/datastream/PDF/view
!!!URL-scan:
!!!ONB-nifc:
!!!AIN: 1 piano 1 vox
!!!key: G
!!!OMD: Mazur
**kern	**kern	**kern	**text
*part2	*part2	*part1	*part1
*staff3	*staff2	*staff1	*staff1
*I"FORTEPIAN.	*I"FORTEPIAN.	*I"GŁOS.	*
*Ipiano	*Ipiano	*Ivox	*
*ICklav	*ICklav	*ICvox	*
*IGacmp	*IGacmp	*IGsolo	*
*>[A,B,B]	*>[A,B,B]	*>[A,B,B]	*>[A,B,B]
*>A	*>A	*>A	*>A
*clefF4	*clefG2	*clefG2	*
*k[f#]	*k[f#]	*k[f#]	*
*G:	*G:	*G:	*
*M3/8	*M3/8	*M3/8	*
=1-	=1-	=1-	=1-
!LO:TX:t=P:problem=mixed beam	!	!LO:TX:a:t=E.21.	!
8GG/L 8GGG/	16d/'LL	16d/	Nad
.	16g/'JJ	16g/	stru-
8B\ 8G\ 8D\	8b/^	8b/	-my-
8B\J 8G\ 8D\	(16a/LL	(16a/LL	-kiem,
.	16g/JJ)	16g/JJ)	.
=2	=2	=2	=2
!LO:TX:t=P:problem=mixed beam	!	!	!
8DD/L	16f#/LL	16f#/	przy
.	16a/JJ	16a/	do-
8A\ 8F#\ 8D\	8cc/^L	8cc\	-li-
8A\J 8F#\ 8D\	(16b/L	16b\LL	-nie,
.	16a/JJ)	16a\JJ	.
!!LO:PB:g=original
=3	=3	=3	=3
8GG/ 8GGG/	8.b\^<	8.b\	sie-
8B\L 8G\ 8D\	.	.	.
.	16dd\'LL	16dd\	-dział
8B\J 8G\ 8D\	16cc#X\'	16cc#X\	Jó-
.	16dd\'JJ	16dd\	-zio
=4	=4	=4	=4
8GG/ 8GGG/	16.ee\LL	16.ee\	chło-
.	32dd\JJk	32dd\	-piec
8B\L 8G\ 8D\	8cc#X\'L	8cc#X\	ho-
8B\J 8G\ 8D\	8dd\'J	8dd\	-ży,
=5	=5	=5	=5
8GG/ 8GGG/	16d/'LL	16d/	i
.	16g/'JJ	16g/	wy-
8B\L 8G\ 8D\	8b/^L	8b/	-pla-
.	(32qcc\LLL	.	.
.	32qb\JJJ)	.	.
8B\J 8G\ 8D\	(16a/L	(16a/LL	-tał
.	16g/JJ)	16g/JJ)	.
!!LO:LB:g=original
=6	=6	=6	=6
8DD/	16f#/'LL	16f#/	swej
.	16a/'JJ	16a/	dzie-
8B\L 8F#\ 8D\	8cc/^L	8cc\	-wczy-
.	(32qdd/LLL	.	.
.	32qcc/JJJ)	.	.
8B\J 8F#\ 8D\	16b\L	(16b\LL	-nie,
.	16a\JJ	16a\JJ)	.
=7	=7	=7	=7
!LO:TX:t=P:problem=mixed beam	!	!	!
8GG/L	8.b\^L	8.b\	wia-
8B\ 8G\ 8D\	.	.	.
.	16dd\'L	16dd\	-ne-
8B\J 8G\ 8D\	16cc#X\'	16cc#X\	-czek
.	16dd\'JJ	16dd\	z czer
!!LO:LB:g=original
=8	=8	=8	=8
8GG/	16.ee\'LL	16.ee\	wo-
.	32dd\'JJk	32dd\	-nej
8B\L 8G\ 8D\	8cc#X\'L	8cc#X\	ró-
8B\J 8G\ 8D\	8dd\'J	8dd\	-ży,
=9!|:	=9!|:	=9!|:	=9!|:
*>B	*>B	*>B	*>B
!LO:TX:t=P:problem=mixed beam	!	!	!
8GG/L 8GGG/	16b\'LL	16b\	i
.	16dd\'JJ	16dd\	coś
8B\ 8G\ 8D\	8gg\'L	8gg\	wię-
8B\J 8G\ 8D\	8dd\'J	8dd\	-cej
=10	=10	=10	=10
!LO:TX:t=P:problem=mixed beam	!	!	!
8GG/L 8GGG/	16.ee\LL	16.ee\	przy
.	32dd\JJk	32dd\	tem
8B\ 8G\ 8D\	8cc#X\L	8cc#X\	je-
8B\J 8G\ 8D\	8dd\J	8dd\	-szcze
!!LO:LB:g=original
=11	=11	=11	=11
8DD/	8.d/^L	8.d/	cze-
8A\L 8F#\ 8D\	.	.	.
.	16f#/'L	16f#/	-go
8A\J 8F#\ 8D\	16a/'	16a/	nie
.	16ccn/'JJ	16cc/	mo-
=12	=12	=12	=12
!LO:TX:t=P:problem=mixed beam	!	!	!
8GG/L	16.ee\LL	16.ee\	-gę
.	32dd\JJk	32dd\	po-
8B\ 8G\ 8D\	8cc#X\L	8cc#X\	-wie-
8B\J 8G\ 8D\	8dd\J	8dd\	-dzieć
=13	=13	=13	=13
8GG/ 8GGG/	16dd\LL	16d/	bo
.	16gg\JJ	16g/	czyż
8B\L 8G\ 8D\	8bb\L	8b\	trze-
.	(32qccc/LLL	.	.
.	32qbb/JJJ)	.	.
8B\J 8G\ 8D\	16aa\L	16a/LL	-ba
.	16gg\JJ	16g/JJ	.
!!LO:PB:g=original
=14	=14	=14	=14
!LO:TX:t=P:problem=mixed beam	!	!	!
8DD/L	16ff#\'LL	16f#/	wszy-
.	16aa\'JJ	16a/	-stko
8A\ 8F#\ 8D\	8ccc\L	8cc\	wie-
.	(32qddd/LLL	.	.
.	32qccc/JJJ)	.	.
8A\J 8F#\ 8D\	16bb\L	(16b\LL	-dzieć,
.	16aa\JJ	16a\JJ)	.
=15	=15	=15	=15
!LO:TX:t=P:problem=mixed beam	!	!	!
8GG/L	8.bb\L	8.b\	do-
8B\ 8G\ 8D\	.	.	.
.	16ddd\L	16dd\	-syć
8B\J 8G\ 8D\	16ccc#X\	16cc#X\	że
.	16ddd\JJ	16dd\	coś
=16	=16	=16	=16
!LO:TX:t=P:problem=mixed beam	!	!	!
8DD/L	16eee\LL	16ee\	wię-
.	16ddd\JJ	16dd\	-cej
8c\ 8A\ 8D\	8ff#\L	8f#/	je-
8B\J 8G\	8gg\J	8g/	-szcze
=:|!	=:|!	=:|!	=:|!
*-	*-	*-	*-
!!!system-decoration: s1{(s2,s3)}
!!!RDF**kern: < = below
!!!ENC: Marta Lawrence
!!!END: 2021-11-11
!!!YEC: Copyright 2022 Narodowy Instytut Fryderyka Chopina (https://polishscores.org)
!!!YEM: License CC-BY-4.0 (https://creativecommons.org/licenses/by/4.0)
